dist/img/mailing.svg

<svg width="42" height="32" viewBox="0 0 42 32" fill="none" xmlns="http://www.w3.org/2000/svg">
<path d="M38.0625 0H3.93753C1.76624 0 0 1.76624 0 3.93753V27.5625C0 29.7338 1.76624 31.5 3.93753 31.5H38.0625C40.2338 31.5 42 29.7338 42 27.5625V3.93753C42 1.76624 40.2338 0 38.0625 0ZM38.0625 2.62499C38.2408 2.62499 38.4104 2.66199 38.5655 2.7266L21 17.9508L3.43438 2.7266C3.58947 2.66207 3.75911 2.62499 3.93744 2.62499H38.0625ZM38.0625 28.875H3.93753C3.21336 28.875 2.62499 28.2867 2.62499 27.5624V5.49993L20.1399 20.6796C20.3873 20.8936 20.6937 21 21 21C21.3063 21 21.6127 20.8937 21.8601 20.6796L39.375 5.49993V27.5625C39.3749 28.2867 38.7866 28.875 38.0625 28.875Z" fill="black"/>
</svg>

<svg fill="none" xmlns="http://www.w3.org/2000/svg" viewBox="0 0 42 32"><path d="M38.063 0H3.938A3.942 3.942 0 000 3.938v23.625A3.942 3.942 0 003.938 31.5h34.124A3.942 3.942 0 0042 27.562V3.939A3.942 3.942 0 0038.062 0zm0 2.625c.178 0 .347.037.502.102L21 17.95 3.434 2.727c.155-.065.325-.102.503-.102h34.125zm0 26.25H3.938a1.313 1.313 0 01-1.313-1.313V5.5L20.14 20.68a1.311 1.311 0 001.72 0L39.375 5.5v22.063c0 .724-.588 1.312-1.313 1.312z" fill="#000"/></svg>
